flaticon/medical/articulation.svg

<svg xmlns="http://www.w3.org/2000/svg" width="32" height="32" viewBox="0 0 24 24">
    <path d="M 24 12 C 24 6.761719 20.621094 2.296875 15.929688 0.664062 L 15.929688 0.660156 L 15.710938 0.589844 C 15.699219 0.582031 15.683594 0.578125 15.667969 0.574219 C 15.417969 0.496094 15.167969 0.421875 14.914062 0.359375 C 14.902344 0.355469 14.894531 0.355469 14.886719 0.351562 C 14.636719 0.292969 14.382812 0.238281 14.128906 0.191406 C 14.101562 0.1875 14.074219 0.183594 14.050781 0.179688 C 13.523438 0.0898438 12.988281 0.03125 12.441406 0.0117188 C 12.421875 0.0117188 12.398438 0.0117188 12.375 0.0078125 C 12.25 0.00390625 12.125 0 12 0 C 11.878906 0 11.757812 0.00390625 11.636719 0.0078125 C 11.605469 0.0117188 11.578125 0.0117188 11.546875 0.0117188 C 11.015625 0.03125 10.492188 0.0859375 9.980469 0.171875 C 9.929688 0.179688 9.882812 0.191406 9.832031 0.199219 C 9.609375 0.242188 9.390625 0.285156 9.175781 0.339844 C 9.148438 0.34375 9.121094 0.351562 9.09375 0.355469 L 8.84375 0.417969 L 8.839844 0.425781 C 3.753906 1.816406 0 6.476562 0 12 C 0 17.425781 3.617188 22.015625 8.566406 23.496094 L 8.566406 23.503906 L 8.839844 23.578125 C 8.851562 23.578125 8.867188 23.582031 8.878906 23.585938 C 9.355469 23.714844 9.84375 23.8125 10.34375 23.882812 C 10.394531 23.890625 10.449219 23.894531 10.5 23.902344 C 10.691406 23.925781 10.886719 23.945312 11.082031 23.960938 C 11.144531 23.964844 11.207031 23.972656 11.269531 23.976562 C 11.511719 23.992188 11.753906 24 12 24 C 12.25 24 12.496094 23.988281 12.746094 23.972656 C 12.804688 23.972656 12.863281 23.964844 12.925781 23.960938 C 13.132812 23.945312 13.335938 23.925781 13.542969 23.898438 C 13.585938 23.890625 13.628906 23.886719 13.671875 23.878906 C 14.1875 23.808594 14.691406 23.703125 15.183594 23.566406 C 15.199219 23.5625 15.210938 23.5625 15.222656 23.558594 L 15.492188 23.484375 L 15.492188 23.480469 C 20.410156 21.980469 24 17.402344 24 12 Z M 16.496094 12.109375 C 17.609375 12.71875 18.339844 13.855469 18.414062 15.109375 C 18.480469 16.207031 18.058594 17.265625 17.261719 18.011719 C 15.84375 19.339844 14.960938 21.050781 14.746094 22.859375 C 14.53125 22.910156 14.316406 22.957031 14.101562 23 C 14.078125 23.003906 14.050781 23.007812 14.023438 23.011719 C 13.832031 23.046875 13.640625 23.078125 13.449219 23.101562 C 13.417969 23.105469 13.382812 23.113281 13.347656 23.117188 C 13.15625 23.140625 12.960938 23.15625 12.769531 23.171875 C 12.742188 23.171875 12.71875 23.175781 12.691406 23.175781 C 12.246094 23.203125 11.796875 23.207031 11.351562 23.179688 C 11.34375 23.179688 11.335938 23.179688 11.332031 23.175781 C 11.121094 23.164062 10.914062 23.144531 10.707031 23.121094 C 10.667969 23.117188 10.632812 23.113281 10.59375 23.109375 C 10.414062 23.085938 10.234375 23.058594 10.054688 23.027344 C 10.015625 23.019531 9.972656 23.011719 9.929688 23.003906 C 9.746094 22.96875 9.5625 22.929688 9.378906 22.886719 C 9.359375 22.882812 9.335938 22.878906 9.316406 22.871094 C 9.105469 21.058594 8.21875 19.34375 6.800781 18.011719 C 6 17.265625 5.582031 16.207031 5.644531 15.109375 C 5.726562 13.734375 6.589844 12.515625 7.863281 11.960938 C 7.878906 11.96875 7.898438 11.976562 7.917969 11.984375 C 7.976562 12.007812 8.035156 12.03125 8.097656 12.054688 C 8.152344 12.078125 8.207031 12.097656 8.261719 12.113281 C 8.320312 12.132812 8.375 12.152344 8.433594 12.167969 C 8.503906 12.1875 8.570312 12.203125 8.636719 12.21875 C 8.6875 12.230469 8.734375 12.242188 8.78125 12.253906 C 8.902344 12.277344 9.019531 12.296875 9.140625 12.3125 C 9.707031 12.375 10.265625 12.332031 10.804688 12.1875 C 10.957031 12.148438 11.113281 12.113281 11.273438 12.085938 C 11.292969 12.082031 11.320312 12.078125 11.34375 12.074219 C 11.488281 12.046875 11.636719 12.027344 11.789062 12.015625 C 11.796875 12.011719 11.808594 12.011719 11.816406 12.011719 C 12.078125 12.019531 12.34375 12.011719 12.601562 11.992188 C 12.609375 11.992188 12.617188 11.992188 12.621094 11.992188 C 12.835938 12 13.050781 12.019531 13.261719 12.050781 C 13.28125 12.054688 13.300781 12.058594 13.324219 12.0625 C 13.53125 12.09375 13.734375 12.136719 13.933594 12.1875 C 14.101562 12.234375 14.269531 12.265625 14.441406 12.289062 C 14.492188 12.296875 14.539062 12.300781 14.589844 12.308594 C 14.722656 12.320312 14.859375 12.332031 14.996094 12.332031 C 15.023438 12.335938 15.054688 12.339844 15.085938 12.339844 C 15.097656 12.339844 15.113281 12.335938 15.125 12.335938 C 15.28125 12.335938 15.441406 12.328125 15.597656 12.3125 C 15.746094 12.292969 15.890625 12.269531 16.03125 12.238281 C 16.054688 12.230469 16.074219 12.226562 16.097656 12.222656 C 16.222656 12.191406 16.347656 12.15625 16.46875 12.117188 C 16.480469 12.113281 16.488281 12.113281 16.496094 12.109375 Z M 16.472656 11.265625 L 16.382812 11.300781 C 16.25 11.351562 16.117188 11.390625 15.984375 11.425781 C 15.960938 11.429688 15.941406 11.4375 15.917969 11.441406 C 15.78125 11.476562 15.644531 11.5 15.507812 11.515625 C 15.042969 11.570312 14.582031 11.535156 14.140625 11.414062 C 13.90625 11.351562 13.671875 11.308594 13.433594 11.269531 C 13.410156 11.265625 13.390625 11.261719 13.367188 11.257812 C 13.125 11.222656 12.882812 11.203125 12.636719 11.191406 C 12.628906 11.191406 12.625 11.191406 12.617188 11.191406 L 12.589844 11.1875 L 12.578125 11.191406 C 12.507812 11.1875 12.4375 11.183594 12.371094 11.183594 C 12.175781 11.183594 11.988281 11.195312 11.796875 11.210938 L 11.761719 11.210938 C 11.75 11.214844 11.738281 11.214844 11.722656 11.21875 C 11.558594 11.234375 11.390625 11.253906 11.226562 11.28125 C 11.195312 11.289062 11.164062 11.292969 11.132812 11.296875 C 10.953125 11.332031 10.773438 11.367188 10.597656 11.417969 C 10.15625 11.535156 9.695312 11.570312 9.230469 11.515625 C 9.125 11.503906 9.023438 11.488281 8.921875 11.46875 C 8.851562 11.453125 8.789062 11.433594 8.722656 11.417969 C 8.6875 11.410156 8.65625 11.402344 8.625 11.394531 C 8.527344 11.363281 8.433594 11.332031 8.339844 11.296875 C 8.339844 11.296875 8.339844 11.292969 8.335938 11.292969 C 8.238281 11.257812 8.144531 11.214844 8.050781 11.167969 L 7.976562 11.132812 C 6.855469 10.546875 6.0625 9.398438 5.984375 8.089844 C 5.921875 6.992188 6.339844 5.9375 7.140625 5.1875 C 8.363281 4.042969 9.183594 2.625 9.527344 1.078125 C 9.554688 1.074219 9.578125 1.066406 9.605469 1.0625 C 9.808594 1.015625 10.011719 0.976562 10.214844 0.945312 C 10.226562 0.941406 10.234375 0.941406 10.246094 0.9375 C 10.476562 0.902344 10.710938 0.875 10.941406 0.851562 C 10.964844 0.851562 10.988281 0.847656 11.011719 0.847656 C 11.210938 0.828125 11.417969 0.816406 11.621094 0.8125 C 11.664062 0.808594 11.710938 0.808594 11.753906 0.808594 C 11.949219 0.804688 12.144531 0.804688 12.339844 0.808594 C 12.375 0.8125 12.40625 0.8125 12.4375 0.8125 C 12.902344 0.832031 13.363281 0.875 13.824219 0.953125 C 13.847656 0.957031 13.867188 0.960938 13.890625 0.964844 C 14.089844 0.996094 14.285156 1.039062 14.480469 1.082031 C 14.527344 1.089844 14.570312 1.101562 14.617188 1.113281 C 14.808594 1.15625 14.996094 1.210938 15.1875 1.265625 C 15.207031 1.273438 15.230469 1.277344 15.253906 1.285156 C 15.621094 2.746094 16.429688 4.09375 17.601562 5.1875 C 18.398438 5.9375 18.820312 6.992188 18.753906 8.089844 C 18.671875 9.507812 17.746094 10.738281 16.472656 11.265625 Z M 0.800781 12 C 0.800781 6.996094 4.101562 2.746094 8.640625 1.316406 C 8.28125 2.546875 7.585938 3.671875 6.59375 4.605469 C 5.621094 5.515625 5.109375 6.800781 5.1875 8.136719 C 5.269531 9.496094 5.984375 10.71875 7.042969 11.488281 C 5.773438 12.238281 4.9375 13.574219 4.847656 15.0625 C 4.769531 16.398438 5.28125 17.6875 6.253906 18.597656 C 7.445312 19.714844 8.21875 21.125 8.472656 22.628906 C 4.019531 21.144531 0.800781 16.941406 0.800781 12 Z M 15.59375 22.605469 C 15.851562 21.113281 16.621094 19.707031 17.808594 18.59375 C 18.78125 17.683594 19.292969 16.398438 19.214844 15.0625 C 19.132812 13.722656 18.433594 12.496094 17.351562 11.714844 C 18.597656 10.972656 19.464844 9.640625 19.550781 8.136719 C 19.632812 6.800781 19.121094 5.515625 18.148438 4.605469 C 17.234375 3.746094 16.570312 2.726562 16.191406 1.617188 C 20.296875 3.277344 23.199219 7.304688 23.199219 12 C 23.199219 16.917969 20.011719 21.105469 15.59375 22.605469 Z M 15.59375 22.605469"/>
</svg>

<svg xmlns="http://www.w3.org/2000/svg" width="32" height="32" viewBox="0 0 24 24">
    <path d="M24 12c0-5.238-3.379-9.703-8.07-11.336V.66l-.22-.07c-.01-.008-.026-.012-.042-.016-.25-.078-.5-.152-.754-.215-.012-.004-.02-.004-.027-.007-.25-.059-.504-.114-.758-.16a12.142 12.142 0 0 0-1.688-.18c-.02 0-.043 0-.066-.004C12.25.004 12.125 0 12 0a11.27 11.27 0 0 0-.453.012c-.531.02-1.055.074-1.567.16-.05.008-.097.02-.148.027-.223.043-.441.086-.656.14-.028.005-.055.013-.082.016l-.25.063-.004.008C3.754 1.816 0 6.476 0 12c0 5.426 3.617 10.016 8.566 11.496v.008l.274.074a12.006 12.006 0 0 0 1.504.305c.05.008.105.012.156.02.191.023.387.042.582.058.063.004.125.012.188.016.242.015.484.023.73.023.25 0 .496-.012.746-.027.059 0 .117-.008.18-.012.207-.016.41-.035.617-.063.043-.007.086-.011.129-.02.515-.07 1.02-.175 1.512-.312.015-.003.027-.003.039-.007l.27-.075v-.004C20.41 21.98 24 17.402 24 12zm-7.504.11a3.686 3.686 0 0 1 1.918 3 3.662 3.662 0 0 1-1.152 2.902c-1.418 1.328-2.301 3.039-2.516 4.847-.215.051-.43.098-.644.141l-.079.012a9.727 9.727 0 0 1-.574.09c-.031.003-.066.011-.101.015-.192.024-.387.04-.578.055-.028 0-.051.004-.079.004-.445.027-.894.031-1.34.004-.007 0-.015 0-.019-.004-.21-.012-.418-.031-.625-.055l-.113-.012c-.18-.023-.36-.05-.54-.082l-.124-.023a13.833 13.833 0 0 1-.551-.117c-.02-.004-.043-.008-.063-.016-.21-1.812-1.097-3.527-2.515-4.86a3.665 3.665 0 0 1-1.156-2.902 3.69 3.69 0 0 1 2.218-3.148c.016.008.035.016.055.023.059.024.117.047.18.07.054.024.109.044.164.06.058.019.113.038.172.054.07.02.136.035.203.05l.144.036c.121.023.239.043.36.059.566.062 1.125.019 1.664-.126.152-.039.308-.074.468-.101l.07-.012c.145-.027.294-.047.446-.058.008-.004.02-.004.027-.004a7.5 7.5 0 0 0 .786-.02h.02a5.826 5.826 0 0 1 .702.07c.207.032.41.075.61.126.168.046.336.078.507.101.051.008.098.012.149.02.133.011.27.023.406.023a.641.641 0 0 0 .09.008c.012 0 .027-.004.039-.004.156 0 .316-.008.473-.024a5.014 5.014 0 0 0 .5-.09c.125-.03.25-.066.37-.105.012-.004.02-.004.028-.008zm-.023-.844l-.09.035c-.133.05-.266.09-.399.125-.023.004-.043.011-.066.015a3.572 3.572 0 0 1-1.777-.027 7.315 7.315 0 0 0-.707-.144l-.067-.012a7.573 7.573 0 0 0-.73-.067h-.02l-.027-.004-.012.004c-.07-.004-.14-.007-.207-.007-.195 0-.383.011-.574.027h-.035c-.012.004-.024.004-.04.008a7.17 7.17 0 0 0-.59.078c-.179.035-.359.07-.534.121a3.65 3.65 0 0 1-1.368.098 3.91 3.91 0 0 1-.308-.047c-.07-.016-.133-.035-.2-.051a3.685 3.685 0 0 1-.097-.023 6.105 6.105 0 0 1-.285-.098s0-.004-.004-.004a2.63 2.63 0 0 1-.285-.125l-.074-.035c-1.122-.586-1.915-1.735-1.993-3.043a3.67 3.67 0 0 1 1.157-2.902c1.222-1.145 2.043-2.563 2.386-4.11.028-.004.051-.012.078-.016.204-.046.407-.085.61-.117.012-.004.02-.004.031-.007.23-.036.465-.063.695-.086.024 0 .047-.004.07-.004.2-.02.407-.032.61-.035.043-.004.09-.004.133-.004.195-.004.39-.004.586 0 .035.003.066.003.098.003.464.02.925.063 1.386.141l.067.012c.199.031.394.074.59.117.046.008.09.02.136.031.192.043.38.098.57.153.02.007.043.011.067.02.367 1.46 1.176 2.808 2.348 3.902a3.667 3.667 0 0 1 1.152 2.902c-.082 1.418-1.008 2.648-2.281 3.176zM.8 12c0-5.004 3.3-9.254 7.84-10.684-.36 1.23-1.055 2.356-2.047 3.29a4.46 4.46 0 0 0-1.407 3.53 4.504 4.504 0 0 0 1.856 3.352 4.475 4.475 0 0 0-2.195 3.575 4.468 4.468 0 0 0 1.406 3.535c1.191 1.117 1.965 2.527 2.219 4.03C4.02 21.146.8 16.942.8 12zm14.793 10.605c.258-1.492 1.027-2.898 2.215-4.011a4.46 4.46 0 0 0 1.406-3.532 4.486 4.486 0 0 0-1.863-3.347c1.246-.742 2.113-2.074 2.199-3.578a4.444 4.444 0 0 0-1.403-3.532c-.914-.859-1.578-1.878-1.957-2.988C20.297 3.277 23.2 7.305 23.2 12c0 4.918-3.187 9.105-7.605 10.605zm0 0"/>
</svg>
